X: 40919
T: Trip To Athlone, The
R: jig
M: 6/8
K: Dmixolydian
|:AcA D2A|dcA AGE|AcG ABc|dAB cde|
AcA D2A|dcA AGE|GFG Ade|1 fd^c d2d:|2 fd^c d2e||
|:fed edc|Ad^c d2d|fed efg|AB^c d2f|
gfg age|dcA AGE|GFG Ade|fd^c d2d:|

